packages/icons/src/SVG/close.svg

<svg width="12" height="12" viewBox="0 0 12 12" >
<path d="M1.40685 0.34314L0.346191 1.4038L4.94239 5.99999L0.346192 10.5962L1.40685 11.6568L6.00305 7.06065L10.5992 11.6568L11.6599 10.5962L7.06371 5.99999L11.6599 1.4038L10.5992 0.34314L6.00305 4.93933L1.40685 0.34314Z" />
</svg>

<!-- Generated by IcoMoon.io -->
<svg version="1.1" xmlns="http://www.w3.org/2000/svg" width="12" height="12" viewBox="0 0 12 12">
<title>close</title>
<path d="M1.407 0.343l-1.061 1.061 4.596 4.596-4.596 4.596 1.061 1.061 4.596-4.596 4.596 4.596 1.061-1.061-4.596-4.596 4.596-4.596-1.061-1.061-4.596 4.596-4.596-4.596z"></path>
</svg>
